svg/Outline/duplicate.svg

<svg viewBox="0 0 24 24" xmlns="http://www.w3.org/2000/svg" width="24" height="24"><path d="M14.01 10.26c.5 0 .9.4.9.9v1.94h2.03a.9.9 0 0 1 0 1.8H14.9v2.03a.9.9 0 0 1-1.8 0V14.9h-1.94a.9.9 0 0 1 0-1.8h1.94v-1.94c0-.5.4-.9.9-.9"/><path fill-rule="evenodd" d="M12.13 3.05c1.3.02 2.09.1 2.73.43a4 4 0 0 1 1.75 1.74c.24.48.34 1.03.39 1.82.79.04 1.35.15 1.83.4a4 4 0 0 1 1.74 1.74c.44.86.44 1.98.44 4.22v2.68c-.03 1.3-.11 2.1-.44 2.74l-.15.27a4 4 0 0 1-1.6 1.47l-.16.08c-.61.26-1.38.33-2.57.35l-1.48.01h-2.69a7 7 0 0 1-2.56-.36l-.17-.08a4 4 0 0 1-1.6-1.47l-.15-.27a5 5 0 0 1-.4-1.82 5 5 0 0 1-1.65-.32l-.16-.08a4 4 0 0 1-1.6-1.47l-.15-.27c-.33-.65-.41-1.44-.43-2.74V9.44c0-2.1 0-3.22.35-4.05l.08-.17a4 4 0 0 1 1.47-1.59l.28-.15c.64-.33 1.43-.41 2.73-.43l1.48-.01zM13.4 8.8c-1.15 0-1.9 0-2.48.05-.56.04-.79.12-.92.19a2.2 2.2 0 0 0-.96.96 2 2 0 0 0-.2.92c-.04.58-.04 1.33-.04 2.48v1.2c0 1.15 0 1.9.05 2.48.04.56.12.79.19.92q.33.63.96.96l.12.05c.15.05.38.1.8.14.57.05 1.33.05 2.48.05h1.2c1.15 0 1.9 0 2.48-.05.55-.04.79-.12.92-.19l.15-.09q.52-.3.8-.87l.06-.12c.05-.15.1-.38.14-.8.05-.58.05-1.33.05-2.48v-1.2c0-1.15 0-1.9-.05-2.48a3 3 0 0 0-.14-.8l-.05-.12a2.2 2.2 0 0 0-.96-.96 3 3 0 0 0-.92-.2c-.58-.04-1.33-.04-2.48-.04zM9.44 4.84c-1.15 0-1.9 0-2.48.05-.55.04-.79.12-.92.19a2.2 2.2 0 0 0-.96.96c-.07.13-.14.36-.19.92-.05.58-.05 1.33-.05 2.48v1.2c0 1.15 0 1.9.05 2.48.05.56.12.79.2.92q.32.63.95.96l.12.05c.15.05.38.1.8.14h.05v.17-1.96c0-2.1 0-3.22.36-4.05l.07-.17A4 4 0 0 1 8.92 7.6l.27-.15c.64-.33 1.44-.41 2.73-.43L13.41 7h2.01-.22v-.04a3 3 0 0 0-.15-.8L15 6.04a2.2 2.2 0 0 0-.96-.96 3 3 0 0 0-.92-.2c-.57-.04-1.33-.04-2.48-.04z" clip-rule="evenodd"/></svg>

<svg viewBox="0 0 24 24" xmlns="http://www.w3.org/2000/svg" width="24" height="24"><path d="M14.01 10.26c.5 0 .9.4.9.9v1.94h2.03a.9.9 0 0 1 0 1.8H14.9v2.03a.9.9 0 0 1-1.8 0V14.9h-1.94a.9.9 0 0 1 0-1.8h1.94v-1.94c0-.5.4-.9.9-.9"/><path fill-rule="evenodd" d="M12.13 3.05C13.43 3.07 14.22 3.15 14.86 3.48A4 4 0 0 1 16.61 5.22C16.85 5.7 16.95 6.25 17 7.04C17.79 7.08 18.35 7.19 18.83 7.44A4 4 0 0 1 20.57 9.18C21.01 10.04 21.01 11.16 21.01 13.4L21.01 16.08C20.98 17.38 20.9 18.18 20.57 18.82L20.42 19.09A4 4 0 0 1 18.82 20.56L18.66 20.64C18.05 20.9 17.28 20.97 16.09 20.99L11.92 21A7 7 0 0 1 9.36 20.64L9.19 20.56A4 4 0 0 1 7.59 19.09L7.44 18.82A5 5 0 0 1 7.04 17A5 5 0 0 1 5.39 16.68L5.23 16.6A4 4 0 0 1 3.63 15.13L3.48 14.86C3.15 14.21 3.07 13.42 3.05 12.12L3.05 9.44C3.05 7.34 3.05 6.22 3.4 5.39L3.48 5.22A4 4 0 0 1 4.95 3.63L5.23 3.48C5.87 3.15 6.66 3.07 7.96 3.05L9.44 3.04ZM13.4 8.8c-1.15 0-1.9 0-2.48.05-.56.04-.79.12-.92.19a2.2 2.2 0 0 0-.96.96 2 2 0 0 0-.2.92c-.04.58-.04 1.33-.04 2.48v1.2c0 1.15 0 1.9.05 2.48.04.56.12.79.19.92q.33.63.96.96l.12.05c.15.05.38.1.8.14.57.05 1.33.05 2.48.05h1.2c1.15 0 1.9 0 2.48-.05.55-.04.79-.12.92-.19l.15-.09q.52-.3.8-.87l.06-.12c.05-.15.1-.38.14-.8.05-.58.05-1.33.05-2.48v-1.2c0-1.15 0-1.9-.05-2.48a3 3 0 0 0-.14-.8l-.05-.12a2.2 2.2 0 0 0-.96-.96 3 3 0 0 0-.92-.2c-.58-.04-1.33-.04-2.48-.04zM9.44 4.84C8.29 4.84 7.54 4.84 6.96 4.89C6.41 4.93 6.17 5.01 6.04 5.08A2.2 2.2 0 0 0 5.08 6.04C5.01 6.17 4.94 6.4 4.89 6.96C4.84 7.54 4.84 8.29 4.84 9.44L4.84 10.64C4.84 11.79 4.84 12.54 4.89 13.12C4.94 13.68 5.01 13.91 5.09 14.04Q5.41 14.67 6.04 15L6.16 15.05C6.31 15.1 6.54 15.15 6.96 15.19L7.01 15.36L7.01 13.4C7.01 11.3 7.01 10.18 7.37 9.35L7.44 9.18A4 4 0 0 1 8.92 7.6L9.19 7.45C9.83 7.12 10.63 7.04 11.92 7.02L15.2 6.96A3 3 0 0 0 15.05 6.16L15 6.04A2.2 2.2 0 0 0 14.04 5.08A3 3 0 0 0 13.12 4.88C12.55 4.84 11.79 4.84 10.64 4.84Z" clip-rule="evenodd"/></svg>
